X:114
T:Maggie Pickens
N:Set (long) Dance   Allan's  #114   pp29
N:Trad/Anon
N:CONVERTED FROM NOTEWORTHY COMPOSER  (WWW.NOTEWORTHYSOFTWARE.COM) BY
N:ABC2NWC (HTTP://MEMBERS.AOL.COM/ABACUSMUSIC/), WITH
Z: (INTO NWC) VINCE BRENNAN 2002   (WWW.SOSYOURMOM.COM)
I:abc2nwc
M:2/4
L:1/16
K:A
A3FE3F|A3Bc4|A3ce3c|B3A F4|
A3F E3F|A3B c4|A3ce3c|B4A4|]
f3ga3e|f3e c4|A3ce3c|B3A F4|
[1f3g a3e|f3e a4|A3ce3c|B4A4:|
[2G3F E3F|A3B c4|A3ce3c|B4A4|]
